public/images/hashed/c9a35919881133250a705408446ecbc0.svg

<?xml version="1.0" encoding="UTF-8"?>
<svg width="80px" height="80px" viewBox="0 0 80 80" version="1.1" xmlns="http://www.w3.org/2000/svg" xmlns:xlink="http://www.w3.org/1999/xlink">
    <!-- Generator: Sketch 64 (93537) - https://sketch.com -->
    <title>Icon-Architecture/64/Arch_Amazon-Managed-Streaming-for-Kafka_64</title>
    <desc>Created with Sketch.</desc>
    <defs>
        <linearGradient x1="0%" y1="100%" x2="100%" y2="0%" id="linearGradient-1">
            <stop stop-color="#4D27A8" offset="0%"></stop>
            <stop stop-color="#A166FF" offset="100%"></stop>
        </linearGradient>
    </defs>
    <g id="Icon-Architecture/64/Arch_Amazon-Managed-Streaming-for-Kafka_64" stroke="none" stroke-width="1" fill="none" fill-rule="evenodd">
        <g id="Icon-Architecture-BG/64/Analytics" fill="url(#linearGradient-1)">
            <rect id="Rectangle" x="0" y="0" width="80" height="80"></rect>
        </g>
        <path d="M36.0081373,36.9770888 L36.0081373,27.9864616 L38.0040686,27.9864616 L38.0040686,31.9822959 L40.697578,27.9864616 L42.907074,27.9864616 L39.7854374,32.1900793 L43.1645492,36.9770888 L40.7973746,36.9770888 L38.0040686,32.631619 L38.0040686,36.9770888 L36.0081373,36.9770888 Z M66,49.1174325 L65.331363,49.6958295 C63.9841093,50.8755996 62.1718036,51.4659841 60.357502,51.4659841 C58.5432004,51.4659841 56.7279008,50.8755996 55.3786512,49.6928326 L54.0453691,48.5380365 C52.0893563,46.8238236 48.665336,46.8238236 46.7133152,48.5340406 L45.3720493,49.6958295 C42.6785399,52.0563686 38.1168388,52.0583665 35.4193375,49.6928326 L34.0860553,48.5380365 C32.1300426,46.8238236 28.7060223,46.8238236 26.7540015,48.5340406 L25.4127356,49.6958295 C22.7192262,52.0563686 18.157525,52.0583665 15.4600238,49.6928326 L14.7953787,49.1174325 L16.1017157,47.6060081 L16.7703527,48.1854041 C18.7273635,49.899617 22.1513837,49.899617 24.1024066,48.1893999 L25.4436725,47.0266121 C28.1371819,44.667072 32.698883,44.667072 35.3963843,47.030608 L36.7296664,48.1854041 C38.6866772,49.899617 42.1106974,49.899617 44.0617203,48.1893999 L45.4029862,47.0266121 C48.0964956,44.667072 52.6581968,44.667072 55.355698,47.030608 L56.6889802,48.1854041 C58.6449929,49.899617 62.0690132,49.899617 64.021034,48.1893999 L64.6936629,47.6060081 L66,49.1174325 Z M63.8982843,61.139899 L65.2046213,62.6503244 L64.5359843,63.2297203 C63.1897286,64.4094904 61.3774229,64.998876 59.5641193,64.998876 C57.7488197,64.998876 55.9335201,64.4084915 54.5832726,63.2257245 L53.2499904,62.0709284 C51.2939777,60.3587134 47.8699574,60.3587134 45.9179365,62.0669326 L44.5766706,63.2297203 C41.8851572,65.5902595 37.323456,65.5912584 34.6239589,63.2257245 L33.2906767,62.0709284 C31.3356619,60.3587134 27.9116417,60.3587134 25.9586228,62.0669326 L24.6173569,63.2297203 C21.9248455,65.5902595 17.3631444,65.5912584 14.6646451,63.2257245 L14,62.6503244 L15.3063371,61.139899 L15.9749741,61.719295 C17.9319848,63.43151 21.3560051,63.4325089 23.307028,61.7222918 L24.6482939,60.560503 C27.3428012,58.2009628 31.9025064,58.1999639 34.6010056,60.5634999 L35.9342878,61.719295 C37.8912985,63.43151 41.3153188,63.4325089 43.2663417,61.7222918 L44.6076076,60.560503 C47.3021149,58.2009628 51.8618201,58.1999639 54.5603193,60.5634999 L55.8936015,61.719295 C57.8506122,63.43151 61.2746325,63.4325089 63.2256554,61.7222918 L63.8982843,61.139899 Z M63.8982843,54.8065016 L65.2046213,56.315928 L64.5359843,56.895324 C61.8434729,59.2568621 57.2817718,59.257861 54.5832726,56.8923271 L53.2499904,55.737531 C51.2939777,54.0233181 47.8699574,54.024317 45.9179365,55.7335351 L44.5766706,56.8963229 C43.2304149,58.076093 41.4171113,58.6654786 39.6048056,58.6654786 C37.789506,58.6654786 35.9742064,58.0750941 34.6239589,56.8923271 L33.2906767,55.737531 C31.3356619,54.0233181 27.9116417,54.024317 25.9586228,55.7335351 L24.6173569,56.8963229 C21.9258435,59.2568621 17.3641423,59.2568621 14.6646451,56.8923271 L14,56.315928 L15.3063371,54.8065016 L15.9749741,55.3858976 C17.9319848,57.1001105 21.3560051,57.0991115 23.307028,55.3888944 L24.6482939,54.2271056 C27.3428012,51.8675654 31.9045024,51.8655675 34.6010056,54.2301025 L35.9342878,55.3848986 C37.8912985,57.1001105 41.3153188,57.0991115 43.2663417,55.3888944 L44.6076076,54.2271056 C47.3021149,51.8675654 51.8638161,51.8655675 54.5603193,54.2301025 L55.8936015,55.3848986 C57.8506122,57.1001105 61.2746325,57.0991115 63.2256554,55.3888944 L63.8982843,54.8065016 Z M24.032549,37.9760474 C25.1333052,37.9760474 26.0284804,38.8721132 26.0284804,39.9739646 C26.0284804,41.0758159 25.1333052,41.9718817 24.032549,41.9718817 C22.9317929,41.9718817 22.0366177,41.0758159 22.0366177,39.9739646 C22.0366177,38.8721132 22.9317929,37.9760474 24.032549,37.9760474 L24.032549,37.9760474 Z M39.0020343,16.9979172 C40.1027905,16.9979172 40.9979657,17.893983 40.9979657,18.9958343 C40.9979657,20.0976856 40.1027905,20.9937515 39.0020343,20.9937515 C37.9012782,20.9937515 37.0061029,20.0976856 37.0061029,18.9958343 C37.0061029,17.893983 37.9012782,16.9979172 39.0020343,16.9979172 L39.0020343,16.9979172 Z M55.967451,39.9739646 C55.967451,41.0758159 55.0722757,41.9718817 53.9715196,41.9718817 C52.8707634,41.9718817 51.9755882,41.0758159 51.9755882,39.9739646 C51.9755882,38.8721132 52.8707634,37.9760474 53.9715196,37.9760474 C55.0722757,37.9760474 55.967451,38.8721132 55.967451,39.9739646 L55.967451,39.9739646 Z M39.0020343,22.9916687 C39.6666795,22.9916687 40.2854182,22.8128551 40.8372932,22.5231571 L51.0045676,37.3267243 C50.5884159,37.792239 50.2830384,38.3526548 50.1223659,38.975006 L27.8817027,38.975006 C27.7210302,38.3526548 27.4156527,37.792239 26.999501,37.3267243 L37.1667754,22.5231571 C37.7186504,22.8128551 38.3373892,22.9916687 39.0020343,22.9916687 L39.0020343,22.9916687 Z M24.032549,43.9697989 C25.8867693,43.9697989 27.43661,42.6911319 27.8817027,40.9729231 L50.1223659,40.9729231 C50.5674586,42.6911319 52.1172994,43.9697989 53.9715196,43.9697989 C56.1730319,43.9697989 57.9633823,42.1776672 57.9633823,39.9739646 C57.9633823,37.7702619 56.1730319,35.9781302 53.9715196,35.9781302 C53.5114574,35.9781302 53.0763444,36.0720323 52.6631866,36.2158824 L42.3372356,21.1805567 C42.7503934,20.5522118 42.9938971,19.8029929 42.9938971,18.9958343 C42.9938971,16.7921317 41.2035466,15 39.0020343,15 C36.800522,15 35.0101716,16.7921317 35.0101716,18.9958343 C35.0101716,19.8029929 35.2536752,20.5522118 35.666833,21.1805567 L25.340882,36.2158824 C24.9277243,36.0720323 24.4926112,35.9781302 24.032549,35.9781302 C21.8310367,35.9781302 20.0406863,37.7702619 20.0406863,39.9739646 C20.0406863,42.1776672 21.8310367,43.9697989 24.032549,43.9697989 L24.032549,43.9697989 Z" id="Amazon-Managed-Streaming-for-Kafka-Icon_64_Squid" fill="#FFFFFF"></path>
    </g>
</svg>

<svg xmlns="http://www.w3.org/2000/svg" width="80" height="80"><defs><linearGradient id="a" x1="0%" x2="100%" y1="100%" y2="0%"><stop offset="0%" stop-color="#4D27A8"/><stop offset="100%" stop-color="#A166FF"/></linearGradient></defs><g fill="none" fill-rule="evenodd"><path fill="url(#a)" d="M0 0h80v80H0z"/><path fill="#FFF" d="M36.008 36.977v-8.99h1.996v3.995l2.694-3.996h2.21l-3.123 4.204 3.38 4.787h-2.368l-2.793-4.345v4.345h-1.996ZM66 49.117l-.669.579c-1.347 1.18-3.16 1.77-4.973 1.77-1.815 0-3.63-.59-4.98-1.773l-1.333-1.155c-1.956-1.714-5.38-1.714-7.332-.004l-1.341 1.162c-2.693 2.36-7.255 2.362-9.953-.003l-1.333-1.155c-1.956-1.714-5.38-1.714-7.332-.004l-1.341 1.162c-2.694 2.36-7.255 2.362-9.953-.003l-.665-.576 1.307-1.511.668.58c1.957 1.714 5.381 1.714 7.332.003l1.342-1.162c2.693-2.36 7.255-2.36 9.952.004l1.334 1.154c1.957 1.715 5.38 1.715 7.332.004l1.341-1.162c2.693-2.36 7.255-2.36 9.953.004l1.333 1.154c1.956 1.715 5.38 1.715 7.332.004l.673-.583L66 49.117ZM63.898 61.14l1.307 1.51-.669.58c-1.346 1.18-3.159 1.769-4.972 1.769-1.815 0-3.63-.59-4.98-1.773L53.25 62.07c-1.956-1.712-5.38-1.712-7.332-.004l-1.341 1.163c-2.692 2.36-7.254 2.361-9.953-.004l-1.333-1.155c-1.955-1.712-5.38-1.712-7.332-.004l-1.342 1.163c-2.692 2.36-7.254 2.361-9.952-.004L14 62.65l1.306-1.51.669.58c1.957 1.712 5.381 1.713 7.332.002l1.341-1.161c2.695-2.36 7.255-2.361 9.953.002l1.333 1.156c1.957 1.713 5.381 1.714 7.332.003l1.342-1.161c2.694-2.36 7.254-2.361 9.952.002l1.334 1.156c1.957 1.713 5.38 1.714 7.332.003l.672-.582Zm0-6.333 1.307 1.509-.669.58c-2.693 2.36-7.254 2.362-9.953-.004l-1.333-1.154c-1.956-1.715-5.38-1.714-7.332-.004l-1.341 1.162c-1.347 1.18-3.16 1.77-4.972 1.77-1.815 0-3.63-.59-4.981-1.774l-1.333-1.154c-1.955-1.715-5.38-1.714-7.332-.004l-1.342 1.162c-2.691 2.36-7.253 2.36-9.952-.004L14 56.316l1.306-1.51.669.58c1.957 1.714 5.381 1.713 7.332.003l1.341-1.162c2.695-2.36 7.257-2.361 9.953.003l1.333 1.155c1.957 1.715 5.381 1.714 7.332.004l1.342-1.162c2.694-2.36 7.256-2.361 9.952.003l1.334 1.155c1.957 1.715 5.38 1.714 7.332.004l.672-.582ZM24.033 37.976a1.999 1.999 0 0 1 0 3.996 1.999 1.999 0 0 1 0-3.996Zm14.969-20.978a1.999 1.999 0 0 1 0 3.996 1.999 1.999 0 0 1 0-3.996Zm16.965 22.976a1.999 1.999 0 0 1-1.995 1.998 1.999 1.999 0 0 1 0-3.996c1.1 0 1.995.896 1.995 1.998ZM39.002 22.992c.665 0 1.283-.18 1.835-.469l10.168 14.804a3.95 3.95 0 0 0-.883 1.648h-22.24A3.95 3.95 0 0 0 27 37.327l10.167-14.804c.552.29 1.17.469 1.835.469ZM24.032 43.97c1.855 0 3.405-1.279 3.85-2.997h22.24c.445 1.718 1.995 2.997 3.85 2.997a3.998 3.998 0 0 0 3.991-3.996 3.998 3.998 0 0 0-3.991-3.996c-.46 0-.896.094-1.309.238L42.337 21.18a3.962 3.962 0 0 0 .657-2.185A3.998 3.998 0 0 0 39.002 15a3.998 3.998 0 0 0-3.992 3.996c0 .807.244 1.556.657 2.185L25.34 36.216a3.96 3.96 0 0 0-1.308-.238 3.998 3.998 0 0 0-3.992 3.996 3.998 3.998 0 0 0 3.992 3.996Z"/></g></svg>
